!!!!SEGMENT: pl-sa--37-a-i-37--003_anonim--pastorella-jak-ja-pojde.krn
!!!cenid: 17xx:1240
!!!COM: Anonim
!!!COM-rismID: pe30004985
!!!CDT:
!!!CNT:
!!!OPR: Pastorella
!!!OTL: Jak ja pójdę
!!!OMV: 003
!!!PDT: 1773
!!!AGN:
!!!SMS-siglum: PL-SA
!!!SMS-shelfmark: 37/A I 37
!!!SMS-variant:
!!!SMS-shelfwork: 001-003 M
!!!SMS-altvar:
!!!NIFC-rismSourceID: 1001069554
!!!NIFC-islandoraID:
!!!URL-pdf-islandora:
!!!URL-scan: https://bc.bdsandomierz.pl/dlibra/publication/1287/edition/1255/content @EN{Scan in the Sandomierz Diocese Digital Library} @PL{Skany w portalu Cyfrowa Biblioteka Diecezjalna w Sandomierzu}
!!!ONB-nifc: UWAGA: części Pastorelli: A cóż się to dzieje, Poczekaj bracie, Jak ja pójdę
!!!AIN: 1 alto 2 empty 1 organ 1 tenor 1 tuba 2 violn 1 vox
!!!key:
**kern	**fba	**kern	**kern	**kern	**kern	**text	**kern	**text	**kern	**text	**kern	**text	**kern
*part9	*part9	*part8	*part7	*part6	*part5	*part5	*part4	*part4	*part3	*part3	*part2	*part2	*part1
*staff9	*	*staff8	*staff7	*staff6	*staff5	*staff5	*staff4	*staff4	*staff3	*staff3	*staff2	*staff2	*staff1
*Iorgan	*	*Ituba	*Ivioln	*Ivioln	*Iempty	*	*Itenor	*	*Ialto	*	*Ivox	*	*Iempty
*I"Organo	*	*I"Tuba Solo	*I"Violino Secundo	*I"Violino Primo	*I"Baſso	*	*I"Tenore	*	*I"Alto	*	*I"Canto	*	*I"Principale
*I'org	*	*I'tuba solo	*I'vl 2	*I'vl 1	*I'B	*	*I'T	*	*I'A	*	*I'S	*	*I'princ
*clefF4	*	*clefG2	*clefG2	*clefG2	*clefF4	*	*clefC4	*	*clefC3	*	*clefC1	*	*clefG2
*	*	*ITrd-1c-2	*	*	*	*	*	*	*	*	*	*	*ITrd-1c-2
*k[f#c#]	*	*k[f#c#]	*k[f#c#]	*k[f#c#]	*k[f#c#]	*	*k[f#c#]	*	*k[f#c#]	*	*k[f#c#]	*	*k[f#c#]
*D:	*	*	*D:	*D:	*D:	*	*D:	*	*D:	*	*D:	*	*
*M3/4	*	*M3/4	*M3/4	*M3/4	*M3/4	*	*M3/4	*	*M3/4	*	*M3/4	*	*M3/4
=1	=1	=1	=1	=1	=1	=1	=1	=1	=1	=1	=1	=1	=1
*2\right	*	*2\right	*2\right	*2\right	*2\right	*	*2\right	*	*2\right	*	*2\right	*	*2\right
!!LO:TX:t=P:problem:all\right, middle or left:global
!!LO:TX:t=P:problem:w całym utworze wiele miejsc dysonansowych, w których trudno o jednoznaczne rozwiązanie, stąd często brak notatek "sic"
!	!	!	!	!	!	!	!	!	!	!	!	!	!LO:TX:t=P:problem=partia in D
!	!	!	!	!LO:TX:t=P:problem=krzyżyki [ff# f# cc#]	!	!	!LO:TX:t=P:problem=krzyżyki [c# F#]	!	!LO:TX:t=P:problem=krzyżyki [c# f#]	!	!LO:TX:t=P:problem=krzyżyki [cc# f#]	!	!
!	!	!LO:TX:t=P:problem=partia in D	!	!	!	!	!	!	!	!	!	!	!
!LO:TX:a:Bi:t=Allo	!	!LO:TX:a:Bi:t=allo	!LO:TX:a:Bi:t=Allo	!LO:TX:a:Bi:t=Allo	!	!	!	!	!	!	!	!	!LO:TX:a:Bi:t=Allo
4D\	.	4ff#\	4ff#\	4aa\	4D\	Kie-	4d\	Jak	4a\	Jak	4ff#\	Jak	4dd\
4F#\	6	4ff#\	8ff#\L	8aa\L	4F#\	-dy	4d\	ia	4a\	ja	4ff#\	ia	4dd\
.	.	.	8dd\	8ff#\	.	.	.	.	.	.	.	.	.
4A\	.	4ee\	8ee\	8gg\	4A\	poy-	4A\	poy-	4a\	poy-	4ee\	poy-	4a/
.	.	.	8cc#\J	8ee\J	.	.	.	.	.	.	.	.	.
=2	=2	=2	=2	=2	=2	=2	=2	=2	=2	=2	=2	=2	=2
!	!	!	!LO:TX:t=P:problem=mixed beam	!LO:TX:t=P:problem=mixed beam	!	!	!	!	!	!	!	!	!
8D\L	.	4ff#\	8dd\L	8ff#\L	2.D\	-dę	2.d\	-dę	2.f#\	-dę	2.dd\	-dę	4dd\
8d\	.	.	8d/	8d/	.	.	.	.	.	.	.	.	.
8A\	.	4r	8f#/	8f#/	.	.	.	.	.	.	.	.	4r
8F#\J	.	.	8a/J	8a/J	.	.	.	.	.	.	.	.	.
4D\	.	4r	4dd\	4dd\	.	.	.	.	.	.	.	.	4r
!	!	!	!LO:LB:g=original	!	!	!	!LO:LB:g=original	!	!LO:LB:g=original	!	!LO:LB:g=original	!	!
=3	=3	=3	=3	=3	=3	=3	=3	=3	=3	=3	=3	=3	=3
4D\	.	4ff#\	4ff#\	4aa\	4D\	z So-	4d\	z So-	4a\	z So-	4ff#\	z So-	4dd\
4F#\	6	4aa\	8ff#\L	8aa\L	4F#\	-bą	4d\	-bą	4a\	-bą	4aa\	-bą	4ff#\
.	.	.	8dd\	8ff#\	.	.	.	.	.	.	.	.	.
4A\	.	4gg\	8ee\	8gg\	4A\	we-	8d\L	we-	4a\	we-	4gg\	we-	4ee\
.	.	.	8cc#\J	8ee\J	.	.	8e\J	.	.	.	.	.	.
!LO:LB:g=original	!	!	!	!	!	!	!	!	!	!	!	!	!LO:LB:g=original
=4	=4	=4	=4	=4	=4	=4	=4	=4	=4	=4	=4	=4	=4
!	!	!	!LO:TX:t=P:problem=mixed beam	!LO:TX:t=P:problem=mixed beam	!	!	!	!	!	!	!	!	!LO:N:vis=2
8D\L	.	2ff#\	8dd\L	8ff#\L	2.D\	-zmę	2.d\	-zmę	2.a\	-zmę	2.ff#\	-zmę	4dd\
8d\	.	.	8d/	8d/	.	.	.	.	.	.	.	.	.
8A\	.	.	8f#/	8f#/	.	.	.	.	.	.	.	.	4r
8F#\J	.	.	8a/J	8a/J	.	.	.	.	.	.	.	.	.
4D\	.	4r	4dd\	4dd\	.	.	.	.	.	.	.	.	4r
!	!	!	!	!	!LO:LB:g=original	!	!	!	!	!	!	!	!
=5	=5	=5	=5	=5	=5	=5	=5	=5	=5	=5	=5	=5	=5
4D\	.	2ff#\	4ff#\	4ff#\	4D\	pię-	2d\	pie-	2a\	pie-	2ff#\	pię-	2dd\
4F#\	6	.	8ff#\L	8ff#\L	4F#\	-kne	.	.	.	.	.	.	.
.	.	.	8dd\	8dd\	.	.	.	.	.	.	.	.	.
4D\	.	4aa\	8ff#\	8aa\	4D\	bia-	4d\	-kne	4a\	-kne	4aa\	-kne	4ff#\
.	.	.	8dd\J	8ff#\J	.	.	.	.	.	.	.	.	.
!	!	!LO:LB:g=original	!	!	!	!	!	!	!	!	!	!	!
=6	=6	=6	=6	=6	=6	=6	=6	=6	=6	=6	=6	=6	=6
4e\	.	4gg\	4ee\	4gg\	(>4E\	-lu-	4c#\	bia-	4a\	bia-	4gg\	bia-	4ee\
4c#\	.	4gg\	8ee\L	8gg\L	4C#/)	.	4e\	-lu-	4a\	-lu-	4gg\	-lu-	4ee\
.	.	.	8cc#\	8ff#\	.	.	.	.	.	.	.	.	.
4A\	.	4ff#\	8ee\	8gg\	4AA/	-skie	4c#\	-szkie	4a\	-szkie	4ff#\	-szkie	4dd\
.	.	.	8cc#\J	8ee\J	.	.	.	.	.	.	.	.	.
=7	=7	=7	=7	=7	=7	=7	=7	=7	=7	=7	=7	=7	=7
8D\L	.	2ee\	4dd\	4ff#\	2D\	ja-	2d\	Ja-	2a\	ja-	2ff#\	ja-	2.dd\
8E\	.	.	.	.	.	.	.	.	.	.	.	.	.
8F#\	.	.	8dd\L	8ff#\L	.	.	.	.	.	.	.	.	.
8E\J	.	.	8cc#\	8ee\	.	.	.	.	.	.	.	.	.
8F#\L	.	4ff#\	8dd\	8ff#\	(>8F#\L	-gniąt-	4d\	-gniąt-	4a\	-gniąt-	4ff#\	-gniąt-	.
8G#X\J	5	.	8b\J	8dd\J	8G#X\J)	.	.	.	.	.	.	.	.
!	!	!	!	!LO:LB:g=original	!	!	!LO:LB:g=original	!	!	!	!	!	!
=8	=8	=8	=8	=8	=8	=8	=8	=8	=8	=8	=8	=8	=8
!	!	!	!	!	!	!	!LO:SIC:v:l:s=-ka	!	!	!	!LO:SIC:v:l:s=-ka	!	!
4A\	.	2ee\	2.cc#\	8ee\L	2.A\	-ko	2.c#\	-tka	2.a\	-ka	2.ee\	-tka	2a/
.	.	.	.	8a\	.	.	.	.	.	.	.	.	.
8D\L	.	.	.	8cc#\	.	.	.	.	.	.	.	.	.
8E\J	#	.	.	8ee\J	.	.	.	.	.	.	.	.	.
4AA/	.	4r	.	4aa\	.	.	.	.	.	.	.	.	4r
=9	=9	=9	=9	=9	=9	=9	=9	=9	=9	=9	=9	=9	=9
4D\	.	2gg\	4ff#\	4ff#\	(>4D\	te	2d\	te	2a\	te	2ff#\	te	2dd\
4F#\	6	.	8ff#\L	8ff#\L	4F#\)	.	.	.	.	.	.	.	.
.	.	.	8dd\	8dd\	.	.	.	.	.	.	.	.	.
4D\	.	4aa\	8ff#\	8aa\	4D\	się	4d\	się	4a\	się	4aa\	się	4ff#\
.	.	.	8dd\J	8ff#\J	.	.	.	.	.	.	.	.	.
!LO:LB:g=original	!	!	!	!	!	!	!	!	!LO:LB:g=original	!	!LO:LB:g=original	!	!
=10	=10	=10	=10	=10	=10	=10	=10	=10	=10	=10	=10	=10	=10
4e\	6	2gg\	4ee\	4gg\	(>4E\	zda-	2c#\	zda-	2a\	zda-	2gg\	zda-	2ee\
4c#\	.	.	8ee\L	8gg\L	4C#\)	.	.	.	.	.	.	.	.
.	.	.	8dd\	8ff#\	.	.	.	.	.	.	.	.	.
4A\	.	4ff#\	8ee\	8gg\	4A\	-dzą	4d\	-dzą	4a\	-dzą	4ff#\	-dzą	4dd\
.	.	.	8cc#\J	8ee\J	.	.	.	.	.	.	.	.	.
=11	=11	=11	=11	=11	=11	=11	=11	=11	=11	=11	=11	=11	=11
4G\	5	4gg\	4ee\	4ff#\	4G\	dla	4c#\	dla	(4>ee\	dla	4gg\	dla	4ee\
4A\	4	4ff#\	4dd\	8ff#\L	4A\	Pa-	4A\	Pa-	4dd\)	Pa-	4ff#\	Pa-	4dd\
.	3	.	.	8ee\	.	.	.	.	.	.	.	.	.
4AA/	.	4ee\	4cc#\	8ff#\	4AA/	-niąt-	4A\	-niąt-	4a\	-niąt-	4ee\	-niąt-	4a/
.	.	.	.	8dd\J	.	.	.	.	.	.	.	.	.
!	!	!	!LO:LB:g=original	!	!LO:LB:g=original	!	!	!	!	!	!	!	!
=12	=12	=12	=12	=12	=12	=12	=12	=12	=12	=12	=12	=12	=12
!	!	!	!	!	!	!	!	!	!	!	!	!	!LO:SIC:v:s=2f#/
8D\L	.	2dd\	2.dd\	2.dd\	2.D/	-ka	2.A\	-ka	2.f#\	-ka	2.dd\	-ka	2g/
8d\	.	.	.	.	.	.	.	.	.	.	.	.	.
8A\	.	.	.	.	.	.	.	.	.	.	.	.	.
8F#\J	.	.	.	.	.	.	.	.	.	.	.	.	.
4D\	.	4r	.	.	.	.	.	.	.	.	.	.	4r
=13	=13	=13	=13	=13	=13	=13	=13	=13	=13	=13	=13	=13	=13
4D\	.	2ff#\	4ff#\	8ff#\L	4D\	pię-	2d\	pię-	2a\	tak-	2ff#\	Pie-	2dd\
.	.	.	.	8dd\	.	.	.	.	.	.	.	.	.
4F#\	6	.	8ff#\L	8ff#\	4F#\	-kne	.	.	.	.	.	.	.
.	.	.	8dd\	8dd\	.	.	.	.	.	.	.	.	.
4D\	.	4aa\	8ff#\	8aa\	4D\	bia-	4d\	-kne	4a\	-że	4aa\	-kne	4ff#\
.	.	.	8dd\J	8ff#\J	.	.	.	.	.	.	.	.	.
!	!	!	!	!	!	!	!LO:LB:g=original	!	!	!	!	!	!LO:LB:g=original
=14	=14	=14	=14	=14	=14	=14	=14	=14	=14	=14	=14	=14	=14
4e\	6	2gg\	4ee\	4gg\	(>4E\	-lu-	4c#\	bia-	4a\	bia-	4gg\	bia-	2ee\
4c#\	.	.	8ee\L	8gg\L	4C#/)	.	4e\	-lu-	4a\	-lu-	4gg\	-lu-	.
.	.	.	8cc#\	8ff#\	.	.	.	.	.	.	.	.	.
4A\	.	4ff#\	8ee\	8gg\	4AA/	-skie	4c#\	-szkie	4a\	-szkie	4ff#\	-szkie	4dd\
.	.	.	8cc#\J	8ee\J	.	.	.	.	.	.	.	.	.
=15	=15	=15	=15	=15	=15	=15	=15	=15	=15	=15	=15	=15	=15
8D\L	.	2ee\	4dd\	4ff#\	2D\	ja-	2d\	ja-	2a\	ja-	2ff#\	ja-	2.dd\
8E\	.	.	.	.	.	.	.	.	.	.	.	.	.
8F#\	.	.	8dd\L	8ff#\L	.	.	.	.	.	.	.	.	.
8E\J	.	.	8cc#\	8ee\	.	.	.	.	.	.	.	.	.
8F#\L	.	4ff#\	8dd\	8ff#\	8F#\L	-gniąt-	4d\	-gniąt-	4a\	-gniąt-	4ff#\	-gniąt-	.
8G#X\J	5	.	8b\J	8dd\J	8G#X\J	.	.	.	.	.	.	.	.
!LO:LB:g=original	!	!	!	!LO:LB:g=original	!	!	!	!	!LO:LB:g=original	!	!	!	!
=16	=16	=16	=16	=16	=16	=16	=16	=16	=16	=16	=16	=16	=16
4A\	.	2ee\	2.cc#\	8ee\L	2.A\	-ka	2.c#\	-ka	2.a\	-ka	2.ee\	-ka	2a/
.	.	.	.	8a\	.	.	.	.	.	.	.	.	.
4E\	#	.	.	8cc#\	.	.	.	.	.	.	.	.	.
.	.	.	.	8ee\J	.	.	.	.	.	.	.	.	.
4AA/	.	4r	.	4aa\	.	.	.	.	.	.	.	.	4r
!	!	!LO:LB:g=original	!	!	!	!	!	!	!	!	!LO:LB:g=original	!	!
=17	=17	=17	=17	=17	=17	=17	=17	=17	=17	=17	=17	=17	=17
4D\	.	2ff#\	4ff#\	4ff#\	4D\	te	2d\	te	2a\	te	2ff#\	te	2dd\
4F#\	6	.	8ff#\L	8ff#\L	4F#\	się	.	.	.	.	.	.	.
.	.	.	8dd\	8dd\	.	.	.	.	.	.	.	.	.
4D\	.	4aa\	8ff#\	8aa\	4D\	zda-	4d\	się	4a\	się	4aa\	się	4ff#\
.	.	.	8dd\J	8ff#\J	.	.	.	.	.	.	.	.	.
=18	=18	=18	=18	=18	=18	=18	=18	=18	=18	=18	=18	=18	=18
4e\	6_	2gg\	4ee\	4gg\	(>4E\	-dzą	2c#\	zda-	2a\	zda-	2gg\	zda-	2ee\
4c#\	X	.	8ee\L	8gg\L	4C#/)	.	.	.	.	.	.	.	.
.	.	.	8cc#\	8ff#\	.	.	.	.	.	.	.	.	.
4A\	.	4ff#\	8ee\	8gg\	4A\	dla	4d\	-dzą	4a\	-dzą	4ff#\	-dzą	4dd\
.	.	.	8cc#\J	8ee\J	.	.	.	.	.	.	.	.	.
!	!	!	!	!	!LO:LB:g=original	!	!	!	!	!	!	!	!
=19	=19	=19	=19	=19	=19	=19	=19	=19	=19	=19	=19	=19	=19
4G\	5	4ff#\	4ee\	4gg\	(>4G\	Pa-	4c#\	dla	4ee\	dla	4gg\	dla	4ee\
4A\	4	4ff#\	4dd\	8gg\L	4A\)	.	4A\	Pa-	4dd\	Pa-	4ff#\	Pa-	4dd\
.	3	.	.	8dd\	.	.	.	.	.	.	.	.	.
4AA/	.	4ee\	4cc#\	8ee\	4AA/	-niąt-	4A\	-niąt-	4a\	-niąt-	4ee\	-niąt-	4a/
.	.	.	.	8cc#\J	.	.	.	.	.	.	.	.	.
!	!	!	!	!	!	!	!LO:LB:g=original	!	!	!	!	!	!
=20	=20	=20	=20	=20	=20	=20	=20	=20	=20	=20	=20	=20	=20
!	!	!	!	!	!	!	!	!	!	!	!	!	!LO:SIC:v:s=2f#/
8D\L	.	2dd\	2.dd\	2.dd\	2.D/	-ka	2.A\	-ka	2.f#\	-ka	2.dd\	-ka	2g/
8d\	.	.	.	.	.	.	.	.	.	.	.	.	.
8A\	.	.	.	.	.	.	.	.	.	.	.	.	.
8F#\J	.	.	.	.	.	.	.	.	.	.	.	.	.
4D\	.	4r	.	.	.	.	.	.	.	.	.	.	4r
=21	=21	=21	=21	=21	=21	=21	=21	=21	=21	=21	=21	=21	=21
!	!	!	!LO:TX:a:t=P:problem=w źródle znak początku repetycji	!	!	!	!	!	!	!	!	!	!
4D\	.	4ff#\	4ff#\	4aa\	(>4D\	Tak-	4d\	Tak-	4a\	Tak-	4ff#\	dla	4dd\
4F#\	6	4ff#\	8ff#\L	8aa\L	4F#\)	-że	4d\	-że	4a\	-że	4ff#\	Pa-	4dd\
.	.	.	8dd\	8ff#\	.	.	.	.	.	.	.	.	.
4A\	.	4ee\	8ee\	8gg\	4A\	z So-	4A\	z So-	4g\	z So-	4ee\	-niąt-	4a/
.	.	.	8cc#\J	8ee\J	.	.	.	.	.	.	.	.	.
!LO:LB:g=original	!	!	!	!	!	!	!	!	!LO:LB:g=original	!	!	!	!
=22	=22	=22	=22	=22	=22	=22	=22	=22	=22	=22	=22	=22	=22
!	!	!	!LO:TX:t=P:problem=mixed beam	!LO:TX:t=P:problem=mixed beam	!	!	!	!	!	!	!	!	!
8D\L	.	4ff#\	8dd\L	8ff#\L	2.D\	-bą	2.d\	-bą	2.f#\	-bą	2.dd\	-ka	4dd\
8d\	.	.	8d/	8d/	.	.	.	.	.	.	.	.	.
8A\	.	4r	8f#/	8f#/	.	.	.	.	.	.	.	.	4r
8F#\J	.	.	8a/J	8a/J	.	.	.	.	.	.	.	.	.
4D\	.	4r	4dd\	4dd\	.	.	.	.	.	.	.	.	4r
!	!	!	!LO:LB:g=original	!	!	!	!	!	!	!	!LO:LB:g=original	!	!
=23	=23	=23	=23	=23	=23	=23	=23	=23	=23	=23	=23	=23	=23
4D\	.	4ff#\	4dd\	4aa\	4D\	z So-	4d\	z So-	4a\	z So-	4ff#\	tak-	4dd\
4F#\	6	4aa\	8ff#\L	8aa\L	4F#\	-bą	4f#\	-bą	4a\	-bą	4aa\	-ze	4ff#\
.	.	.	8dd\	8ff#\	.	.	.	.	.	.	.	.	.
4A\	.	4gg\	8ee\	8gg\	4A\	wę-	4e\	wę-	4a\	wę-	4gg\	we-	4ee\
.	.	.	8cc#\J	8ee\J	.	.	.	.	.	.	.	.	.
!	!	!	!	!LO:LB:g=original	!	!	!	!	!	!	!	!	!LO:LB:g=original
=24	=24	=24	=24	=24	=24	=24	=24	=24	=24	=24	=24	=24	=24
!	!	!	!LO:TX:t=P:problem=mixed beam	!LO:TX:t=P:problem=mixed beam	!	!	!	!	!	!	!	!	!
8D\L	.	2ff#\	8dd\L	8ff#\L	2.D\	-zmę	2.d\	-zmę	2.a\	-zmę	2.ff#\	-zmę	2dd\
8d\	.	.	8d/	8d/	.	.	.	.	.	.	.	.	.
8A\	.	.	8f#/	8f#/	.	.	.	.	.	.	.	.	.
8F#\J	.	.	8a/J	8a/J	.	.	.	.	.	.	.	.	.
4D\	.	4r	4dd\	4dd\	.	.	.	.	.	.	.	.	4r
=25	=25	=25	=25	=25	=25	=25	=25	=25	=25	=25	=25	=25	=25
4D\	.	2ff#\	4ff#\	4ff#\	4D\	dwie	2.d\	dwie	[>2a\	dwie	(>2ff#\	dwie	2dd\
4F#\	6	.	8ff#\L	8ff#\L	4F#\	tak-	.	.	.	.	.	.	.
.	.	.	8dd\	8dd\	.	.	.	.	.	.	.	.	.
4D\	.	4aa\	8ff#\	8aa\	4D\	-że	.	.	4a\]	.	4aa\)	.	4ff#\
.	.	.	8dd\J	8ff#\J	.	.	.	.	.	.	.	.	.
!	!	!	!	!	!LO:LB:g=original	!	!LO:LB:g=original	!	!	!	!	!	!
=26	=26	=26	=26	=26	=26	=26	=26	=26	=26	=26	=26	=26	=26
4e\	6	4gg\	4ee\	4gg\	4e\	sli-	4c#\	sli-	2a\	sli-	4gg\	sli-	4ee\
4c#\	.	4gg\	8ee\L	8gg\L	4c#\	-czne	4e\	-czne	.	.	4gg\	-czne	4ee\
.	.	.	8cc#\	8ff#\	.	.	.	.	.	.	.	.	.
4A\	.	4ff#\	8ee\	8gg\	4A\	go-	4c#\	go-	4a\	-czne	4ff#\	go-	4dd\
.	.	.	8cc#\J	8ee\J	.	.	.	.	.	.	.	.	.
!	!	!LO:LB:g=original	!	!	!	!	!	!	!	!	!	!	!
=27	=27	=27	=27	=27	=27	=27	=27	=27	=27	=27	=27	=27	=27
8D\L	.	2ee\	4dd\	4ff#\	2D\	-łą-	2d\	-łą-	4a\	go-	2ff#\	-łę-	2.dd\
8E\	.	.	.	.	.	.	.	.	.	.	.	.	.
8F#\	6	.	8dd\L	8ff#\L	.	.	.	.	4a\	-łę-	.	.	.
8E\J	.	.	8cc#\	8ee\	.	.	.	.	.	.	.	.	.
8F#\L	.	4ff#\	8dd\	8ff#\	8F#\L	-biąt-	4d\	-biąt-	4a\	-biąt-	4ff#\	-biąt-	.
!	!	!	!	!	!LO:SIC:v:s=8G#\J	!	!	!	!	!	!	!	!
8G#X\J	5	.	8b\J	8dd\J	8G\J	.	.	.	.	.	.	.	.
!LO:PB:g=original	!	!	!	!	!	!	!	!	!	!	!	!	!
=28	=28	=28	=28	=28	=28	=28	=28	=28	=28	=28	=28	=28	=28
!	!	!	!LO:TX:a:t=P:problem=w źródle znak końca repetycji	!	!	!	!	!	!	!	!	!	!
4A\	.	2ee\	2.cc#\	8ee\L	2.A\	-ka	2.c#\	-ka	2.a\	-ka	2.ee\	-ka	2a/
.	.	.	.	8a\	.	.	.	.	.	.	.	.	.
4E\	#	.	.	8cc#\	.	.	.	.	.	.	.	.	.
.	.	.	.	8ee\J	.	.	.	.	.	.	.	.	.
4AA/	.	4r	.	4aa\	.	.	.	.	.	.	.	.	4r
!	!	!	!	!	!	!	!	!	!LO:LB:g=original	!	!	!	!
=29	=29	=29	=29	=29	=29	=29	=29	=29	=29	=29	=29	=29	=29
*	*	*	*rep	*	*	*	*	*	*	*	*	*	*
!	!	!	!LO:TX:t=P:problem=w źródle takty 29-36 zapisane za pomocą znaku repetycji	!	!	!	!	!	!	!	!	!	!
!	!	!LO:SIC:v:s=2ff#\	!	!	!	!	!	!	!	!	!	!	!
4D\	.	2gg\	4ff#\yy	4ff#\	4D\	y	2d\	te	2a\	te	2ff#\	te	2dd\
4F#\	6	.	8ff#\Lyy	8ff#\L	4F#\	te	.	.	.	.	.	.	.
.	.	.	8dd\yy	8dd\	.	.	.	.	.	.	.	.	.
4D\	.	4aa\	8ee\yy	8aa\	4D\	się	4d\	się	4a\	się	4aa\	się	4ff#\
.	.	.	8cc#\Jyy	8ff#\J	.	.	.	.	.	.	.	.	.
!	!	!	!	!	!	!	!	!	!	!	!LO:LB:g=original	!	!
=30	=30	=30	=30	=30	=30	=30	=30	=30	=30	=30	=30	=30	=30
!	!	!	!LO:TX:t=P:problem=mixed beam	!	!	!	!	!	!	!	!	!	!
4e\	6	2gg\	8dd\Lyy	4gg\	(>4e\	zda-	2c#\	zda-	2a\	zda-	2gg\	zda-	2ee\
.	.	.	8d/yy	.	.	.	.	.	.	.	.	.	.
4c#\	.	.	8f#/yy	8gg\L	4c#\)	.	.	.	.	.	.	.	.
.	.	.	8a/Jyy	8ff#\	.	.	.	.	.	.	.	.	.
4A\	.	4ff#\	4dd\yy	8gg\	4A\	-dzą	4d\	-dzą	4a\	-dzą	4ff#\	-dzą	4dd\
.	.	.	.	8ee\J	.	.	.	.	.	.	.	.	.
=31	=31	=31	=31	=31	=31	=31	=31	=31	=31	=31	=31	=31	=31
4G\	5	4gg\	4dd\yy	4gg\	4G\	dla	4c#\	dla	4ee\	dla	4gg\	dla	4ee\
4A\	4	4ff#\	8ff#\Lyy	8ff#\L	4A\	Pa-	4A\	Pa-	4dd\	Pa-	4ff#\	Pa-	4dd\
.	3	.	8dd\yy	8dd\	.	.	.	.	.	.	.	.	.
4AA/	.	4ee\	8ee\yy	8ee\	4AA/	-niąt-	4A\	-niąt-	4a\	-niąt-	4ee\	-niąt-	4a/
.	.	.	8cc#\Jyy	8cc#\J	.	.	.	.	.	.	.	.	.
!	!	!	!	!LO:LB:g=original	!	!	!LO:LB:g=original	!	!	!	!	!	!
=32	=32	=32	=32	=32	=32	=32	=32	=32	=32	=32	=32	=32	=32
!	!	!	!LO:TX:t=P:problem=mixed beam	!	!	!	!	!	!	!	!	!	!
!	!	!	!	!	!	!	!	!	!	!	!	!	!LO:SIC:v:s=2f#/
8D\L	.	2dd\	8dd\Lyy	2.dd\	2.D\	-ka	2.A\	-ka	2.f#\	-ka	2.dd\	-ka	2g/
8d\	.	.	8d/yy	.	.	.	.	.	.	.	.	.	.
8A\	.	.	8f#/yy	.	.	.	.	.	.	.	.	.	.
8F#\J	.	.	8a/Jyy	.	.	.	.	.	.	.	.	.	.
4D\	.	4r	4dd\yy	.	.	.	.	.	.	.	.	.	4r
!	!	!	!	!	!LO:LB:g=original	!	!	!	!	!	!	!	!
=33	=33	=33	=33	=33	=33	=33	=33	=33	=33	=33	=33	=33	=33
4D\	.	2ff#\	4ff#\yy	4ff#\	4D\	dwie	2.d\	dwie	2a\	dwie	(>2ff#\	dwie	2dd\
4F#\	6	.	8ff#\Lyy	8ff#\L	4F#\	tak-	.	.	.	.	.	.	.
.	.	.	8dd\yy	8dd\	.	.	.	.	.	.	.	.	.
4D\	.	4aa\	8ff#\yy	8aa\	4D\	-że	.	.	4a\	.	4aa\)	.	4ff#\
.	.	.	8dd\Jyy	8ff#\J	.	.	.	.	.	.	.	.	.
!LO:LB:g=original	!	!	!	!	!	!	!	!	!	!	!	!	!
=34	=34	=34	=34	=34	=34	=34	=34	=34	=34	=34	=34	=34	=34
4e\	6_	2gg\	4ee\yy	4gg\	(>4e\	sli-	4c#\	sli-	2a\	sli-	4gg\	sli-	2ee\
4c#\	X	.	8ee\Lyy	8gg\L	4c#\)	.	4e\	-czne	.	.	4gg\	-czne	.
.	.	.	8cc#\yy	8ff#\	.	.	.	.	.	.	.	.	.
4A\	.	4ff#\	8ee\yy	8gg\	4A\	-czne	4c#\	go-	4a\	-czne	4ff#\	go-	4dd\
.	.	.	8cc#\Jyy	8ee\J	.	.	.	.	.	.	.	.	.
!	!	!	!	!	!	!	!	!	!LO:LB:g=original	!	!	!	!LO:LB:g=original
=35	=35	=35	=35	=35	=35	=35	=35	=35	=35	=35	=35	=35	=35
8D\L	.	2ee\	4dd\yy	4gg\	2D\	go-	2d\	-łą-	4a\	go-	2ff#\	-łę-	2dd\
8E\	.	.	.	.	.	.	.	.	.	.	.	.	.
8F#\	6	.	8dd\Lyy	8ff#\L	.	.	.	.	4a\	-łę-	.	.	.
8E\J	.	.	8cc#\yy	8dd\	.	.	.	.	.	.	.	.	.
8F#\L	.	4ff#\	8dd\yy	8ee\	8F#|>\L	-łą-	4d\	-biąt-	4a\	-biąt-	4ff#\	-biąt-	4dd\
!	!	!	!	!	!LO:SIC:v:s=8G#\J	!	!	!	!	!	!	!	!
8G#X\J	5	.	8b\Jyy	8cc#\J	8G|>\J	-biąt-	.	.	.	.	.	.	.
!	!	!	!	!	!	!	!	!	!	!	!LO:LB:g=original	!	!
=36	=36	=36	=36	=36	=36	=36	=36	=36	=36	=36	=36	=36	=36
4A\	.	2ee\	2.cc#\yy	8ee\L	2.A\	-ka	2.c#\	-ka	2.a\	-ka	2.ee\	-ka	2a/
.	.	.	.	8a\	.	.	.	.	.	.	.	.	.
4E\	#	.	.	8cc#\	.	.	.	.	.	.	.	.	.
.	.	.	.	8ee\J	.	.	.	.	.	.	.	.	.
4AA/	.	4r	.	4aa\	.	.	.	.	.	.	.	.	4r
*	*	*	*Xrep	*	*	*	*	*	*	*	*	*	*
!	!	!LO:LB:g=original	!	!	!	!	!LO:LB:g=original	!	!	!	!	!	!
=37	=37	=37	=37	=37	=37	=37	=37	=37	=37	=37	=37	=37	=37
4D\	.	2ff#\	4ff#\	4ff#\	4D\	y	2d\	te	2a\	te	2ff#\	te	2dd\
4F#\	6	.	8ff#\L	8ff#\L	4F#\	te	.	.	.	.	.	.	.
.	.	.	8dd\	8dd\	.	.	.	.	.	.	.	.	.
4D\	.	4aa\	8ee\	8aa\	4D\	się	4d\	się	4a\	się	4aa\	się	4ff#\
.	.	.	8cc#\J	8ff#\J	.	.	.	.	.	.	.	.	.
=38	=38	=38	=38	=38	=38	=38	=38	=38	=38	=38	=38	=38	=38
4e\	6_	2gg\	4ee\	4gg\	(>4e\	zda-	2c#\	zda-	2a\	zda-	2gg\	zda-	2ee\
4c#\	X	.	8ee\L	8gg\L	4c#\)	.	.	.	.	.	.	.	.
.	.	.	8cc#\	8ff#\	.	.	.	.	.	.	.	.	.
4A\	.	4ff#\	8ee\	8gg\	4A\	-dzą	4d\	-dzą	4a\	-dzą	4ff#\	-dzą	4dd\
.	.	.	8cc#\J	8ee\J	.	.	.	.	.	.	.	.	.
!	!	!	!	!	!LO:LB:g=original	!	!	!	!	!	!	!	!
=39	=39	=39	=39	=39	=39	=39	=39	=39	=39	=39	=39	=39	=39
4G\	5	4ff#\	4ee\	4gg\	4G\	dla	4c#\	dla	4ee\	dla	4gg\	dla	4ee\
4A\	4	4ff#\	4dd\	8ff#\L	4A\	Pa-	4A\	Pa-	4dd\	Pa-	4ff#\	Pa-	4dd\
.	3	.	.	8dd\	.	.	.	.	.	.	.	.	.
4AA/	.	4ee\	4cc#\	8.ee\	4AA/	-niąt-	4A\	-niąt-	4a\	-niąt-	4ee\	-niąt-	4a/
.	.	.	.	16cc#\Jk	.	.	.	.	.	.	.	.	.
!LO:LB:g=original	!	!	!	!LO:LB:g=original	!	!	!	!	!	!	!	!	!
=40	=40	=40	=40	=40	=40	=40	=40	=40	=40	=40	=40	=40	=40
!	!	!	!	!	!	!	!	!	!	!	!	!	!LO:SIC:v:s=2f#/
8D\L	.	2dd\	2.dd\	2.dd\	2.D\	-ka	2.A\	-ka	2.f#\	-ka	2.dd\	-ka	2g/
8d\	.	.	.	.	.	.	.	.	.	.	.	.	.
8A\	.	.	.	.	.	.	.	.	.	.	.	.	.
8F#\J	.	.	.	.	.	.	.	.	.	.	.	.	.
4D\	.	4r	.	.	.	.	.	.	.	.	.	.	4r
!	!	!	!	!	!	!	!	!	!LO:LB:g=original	!	!	!	!
=41	=41	=41	=41	=41	=41	=41	=41	=41	=41	=41	=41	=41	=41
4D\	.	2ff#\	4ff#\	4ff#\	4D\	y	2d\	te	2a\	te	2ff#\	te	2dd\
4F#\	6	.	8ff#\L	8ff#\L	4F#\	te	.	.	.	.	.	.	.
.	.	.	8dd\	8dd\	.	.	.	.	.	.	.	.	.
4D\	.	4aa\	8ff#\	8aa\	4D\	się	4d\	się	4a\	się	4aa\	się	4ff#\
.	.	.	8dd\J	8ff#\J	.	.	.	.	.	.	.	.	.
!	!	!	!LO:LB:g=original	!	!	!	!LO:LB:g=original	!	!	!	!LO:LB:g=original	!	!
=42	=42	=42	=42	=42	=42	=42	=42	=42	=42	=42	=42	=42	=42
4e\	6	2gg\	4ee\	4gg\	(>4e\	zda-	2c#\	zda-	2a\	zda-	2gg\	zda-	2ee\
4c#\	.	.	8ee\L	8gg\L	4c#\)	.	.	.	.	.	.	.	.
.	.	.	8cc#\	8ff#\	.	.	.	.	.	.	.	.	.
4A\	.	4ff#\	8ee\	8gg\	4A\	-dzą	4d\	-dzą	4a\	-dzą	4ff#\	-dzą	4dd\
.	.	.	8cc#\J	8ee\J	.	.	.	.	.	.	.	.	.
=43	=43	=43	=43	=43	=43	=43	=43	=43	=43	=43	=43	=43	=43
4G\	5	4gg\	4ee\	4gg\	4G\	dla	4c#\	dla	4ee\	dla	4gg\	dla	4ee\
4A\	4	4ff#\	4dd\	8ff#\L	4A\	Pa-	4A\	Pa-	4dd\	Pa-	4ff#\	Pa-	4dd\
.	3	.	.	8dd\	.	.	.	.	.	.	.	.	.
4AA/	.	4ee\	4cc#\	8ee\	4AA/	-niąt-	4A\	-niąt-	4a\	-niąt-	4ee\	-niąt-	4a\
.	.	.	.	8cc#\J	.	.	.	.	.	.	.	.	.
=44	=44	=44	=44	=44	=44	=44	=44	=44	=44	=44	=44	=44	=44
!	!	!	!	!	!	!	!	!	!	!	!	!	!LO:SIC:v:s=2.f#/
8D\L	.	2.dd\	2.dd\	2.dd\	2.D\	-ka	2.A\	-ka	2.f#\	-ka	2.dd\	-ka	2.g/
8d\	.	.	.	.	.	.	.	.	.	.	.	.	.
8A\	.	.	.	.	.	.	.	.	.	.	.	.	.
8F#\J	.	.	.	.	.	.	.	.	.	.	.	.	.
4D\	.	.	.	.	.	.	.	.	.	.	.	.	.
!	!	!	!	!	!LO:LB:g=original	!	!	!	!	!	!	!	!
=45	=45	=45	=45	=45	=45	=45	=45	=45	=45	=45	=45	=45	=45
4G\	5	4gg\	4ee\	4gg\	4G\	dla	4c#\	dla	4ee\	dla	4gg\	dla	4ee\
4A\	4	4ff#\	4dd\	8ff#\L	4A\	Pa-	4A\	Pa-	4dd\	Pa-	4ff#\	Pa-	4dd\
.	3	.	.	8dd\	.	.	.	.	.	.	.	.	.
4AA/	.	4ee\	4cc#\	8ee\	4AA/	-niąt-	4A\	-niąt-	4a\	-niąt-	4ee\	-niąt-	4a\
.	.	.	.	8cc#\J	.	.	.	.	.	.	.	.	.
!LO:LB:g=original	!	!	!	!	!	!	!	!	!	!	!	!	!
=46	=46	=46	=46	=46	=46	=46	=46	=46	=46	=46	=46	=46	=46
!LO:TX:a:t=P:problem=w źródle ozdobna kreska taktowa	!	!	!	!	!	!	!	!	!	!	!	!	!
!	!	!LO:TX:a:t=P:problem=w źródle ozdobna kreska taktowa	!LO:TX:a:t=P:problem=w źródle ozdobna kreska taktowa	!	!	!	!	!	!	!	!	!	!
!	!	!	!	!LO:TX:a:t=P:problem=w źródle ozdobna kreska taktowa	!LO:TX:a:t=P:problem=w źródle ozdobna kreska taktowa	!	!	!	!	!	!	!	!
!	!	!	!	!	!	!	!	!	!LO:TX:a:t=P:problem=w źródle ozdobna kreska taktowa	!	!	!	!
2D/	.	2.dd\	2.dd\	2.dd\	2.D\	-ka.	2.A\	-ka.	2.f#\	-ka.	2.dd\	-ka.	2f#/
!	!	!	!	!	!	!	!	!	!	!	!	!	!LO:TX:a:t=P:problem=w źródle ozdobna kreska taktowa
4r	.	.	.	.	.	.	.	.	.	.	.	.	4r
==	==	==	==	==	==	==	==	==	==	==	==	==	==
*-	*-	*-	*-	*-	*-	*-	*-	*-	*-	*-	*-	*-	*-
!!!system-decoration: [(s1)][(s2,s3,s4,s5)][(s6,s7,s8)][(s9)]
!!!RDF**kern: > = above
!!!RDF**kern: < = below
!!!RDF**kern: | = vertical stroke
!!!RDF**kern: N = linked
!!!RDF**kern: i = editorial accidental
!!!RDF**kern: l = terminal long
!!!ENC: Andrzej Borzym
!!!END: 2020-11-22
!!!EED: Wojciech Jakubiak-Danek
!!!EEV: 2022-01-10
!!!YEC: Copyright 2022 Narodowy Instytut Fryderyka Chopina (https://polishscores.org)
!!!YEM: Licence CC BY 4.0 (https://creativecommons.org/licenses/by/4.0)
